logos/aws-sqs.svg

<?xml version="1.0" encoding="UTF-8"?>
<svg width="256px" height="256px" viewBox="0 0 256 256" version="1.1" xmlns="http://www.w3.org/2000/svg" xmlns:xlink="http://www.w3.org/1999/xlink" preserveAspectRatio="xMidYMid">
    <title>AWS Simple Queue Service (SQS)</title>
    <defs>
        <linearGradient x1="0%" y1="100%" x2="100%" y2="0%" id="linearGradient-1">
            <stop stop-color="#B0084D" offset="0%"></stop>
            <stop stop-color="#FF4F8B" offset="100%"></stop>
        </linearGradient>
    </defs>
    <g>
        <rect fill="url(#linearGradient-1)" x="0" y="0" width="256" height="256"></rect>
        <path d="M91.8943891,139.800562 L101.500565,130.309843 C102.102552,129.714884 102.44197,128.906756 102.445217,128.063632 C102.448374,127.220508 102.112158,126.409199 101.513373,125.811058 L91.9071974,116.212164 L87.3666787,120.698223 L91.4877277,124.818398 L76.8287043,124.818398 L76.8287043,131.181602 L91.5389606,131.181602 L87.3794867,135.28905 L91.8943891,139.800562 Z M165.20872,140.090088 L178.016954,130.538918 C178.817468,129.937596 179.294575,128.995841 179.294575,127.996818 C179.294575,126.994614 178.817468,126.049678 178.013752,125.448355 L165.205518,115.909912 L161.363048,121.000476 L166.486341,124.818398 L153.678107,124.818398 L153.678107,131.181602 L166.483139,131.181602 L161.359846,134.999524 L165.20872,140.090088 Z M112.666142,128 C112.666142,134.754541 111.497391,141.124108 109.313587,146.666459 C115.074091,144.452064 121.571067,143.344867 128.06164,143.344867 C134.552212,143.344867 141.049189,144.452064 146.80649,146.666459 C144.625888,141.124108 143.457137,134.754541 143.457137,128 C143.457137,121.245459 144.625888,114.879073 146.80649,109.333541 C135.288685,113.759149 120.834594,113.759149 109.313587,109.333541 C111.497391,114.879073 112.666142,121.245459 112.666142,128 L112.666142,128 Z M96.9792582,158.883811 C96.3548566,158.263399 96.041055,157.448908 96.041055,156.634418 C96.041055,155.819928 96.3548566,155.005438 96.9792582,154.385026 C102.790994,148.610418 106.262026,138.74427 106.262026,128 C106.262026,117.25573 102.790994,107.389582 96.9792582,101.614974 C96.3548566,100.994562 96.041055,100.180072 96.041055,99.3655818 C96.041055,98.5510915 96.3548566,97.7366013 96.9792582,97.1161891 C98.231263,95.8721827 100.254964,95.8721827 101.506969,97.1161891 C113.914945,109.444897 142.208334,109.444897 154.61631,97.1161891 C155.868315,95.8721827 157.892016,95.8721827 159.144021,97.1161891 C159.768422,97.7366013 160.082224,98.5510915 160.082224,99.3655818 C160.082224,100.180072 159.768422,100.994562 159.144021,101.614974 C153.332285,107.389582 149.861254,117.25573 149.861254,128 C149.861254,138.74427 153.332285,148.610418 159.144021,154.385026 C159.768422,155.005438 160.082224,155.819928 160.082224,156.634418 C160.082224,157.448908 159.768422,158.263399 159.144021,158.883811 C158.51962,159.504223 157.699893,159.81602 156.880166,159.81602 C156.060439,159.81602 155.240712,159.504223 154.61631,158.883811 C142.208334,146.555103 113.914945,146.555103 101.506969,158.883811 C100.254964,160.127817 98.231263,160.127817 96.9792582,158.883811 L96.9792582,158.883811 Z M211.203088,128.015908 C211.203088,125.050655 210.04074,122.263572 207.930584,120.166896 C205.753184,118.000225 202.890544,116.921662 200.031106,116.921662 C197.171668,116.921662 194.309027,118.000225 192.131628,120.166896 C187.773626,124.493875 187.773626,131.53476 192.131628,135.86492 C196.486427,140.191899 203.56938,140.195081 207.930584,135.86492 C210.04074,133.768244 211.203088,130.981161 211.203088,128.015908 L211.203088,128.015908 Z M212.458295,140.363706 C209.032092,143.76802 204.5332,145.470177 200.031106,145.470177 C195.529012,145.470177 191.030119,143.76802 187.603917,140.363706 C180.74831,133.555077 180.74831,122.476739 187.603917,115.66811 C194.459524,108.853119 205.609092,108.859482 212.458295,115.66811 C219.313902,122.476739 219.313902,133.555077 212.458295,140.363706 L212.458295,140.363706 Z M67.1360733,128.089085 C67.1360733,125.123832 65.9737261,122.336748 63.8635693,120.240073 C61.7534128,118.143397 58.9484096,116.988475 55.9640912,116.988475 C52.9829747,116.988475 50.1779715,118.143397 48.0646131,120.240073 C45.9544563,122.336748 44.7953114,125.123832 44.7953114,128.089085 C44.7953114,131.051156 45.9544563,133.83824 48.0646131,135.938097 C52.288128,140.128267 59.6432563,140.128267 63.8635693,135.938097 C65.9737261,133.83824 67.1360733,131.051156 67.1360733,128.089085 L67.1360733,128.089085 Z M68.39128,140.436882 C64.9650774,143.841196 60.4661853,145.543354 55.9640912,145.543354 C51.465199,145.543354 46.9663069,143.841196 43.5369024,140.436882 C36.6876992,133.628254 36.6876992,122.549916 43.5369024,115.741287 C50.3925094,108.932659 61.5388749,108.932659 68.39128,115.741287 C75.2436851,122.549916 75.2436851,133.628254 68.39128,140.436882 L68.39128,140.436882 Z M175.666643,175.539498 C162.884026,188.243635 145.884297,195.236796 127.805475,195.236796 C109.720249,195.236796 92.7237222,188.243635 79.941105,175.539498 C71.1738688,166.831453 66.3483667,156.424433 63.8443571,149.23083 L57.7924666,151.311598 C60.5174182,159.138339 65.7848045,170.474387 75.4133942,180.038283 C89.4063898,193.945066 108.010349,201.6 127.805475,201.6 C147.597398,201.6 166.201358,193.945066 180.194354,180.038283 C188.279551,172.011101 194.718891,161.804522 198.334015,151.302053 L192.27572,149.240375 C188.971196,158.84245 183.073004,168.183634 175.666643,175.539498 L175.666643,175.539498 Z M63.8411549,106.772351 L57.7956688,104.68522 C61.6701594,93.6005187 67.9333856,83.3939395 75.4326067,75.945809 C89.4191981,62.051753 108.016754,54.4 127.805475,54.4 C147.594196,54.4 166.191752,62.051753 180.175141,75.945809 C188.068215,83.7884579 194.68687,94.2622918 198.327611,104.68522 L192.282124,106.772351 C188.942377,97.227545 182.880881,87.6318333 175.64743,80.4445942 C162.874419,67.7500022 145.881095,60.7632042 127.805475,60.7632042 C109.726653,60.7632042 92.7365306,67.7500022 79.9603174,80.4445942 C73.1335286,87.2309514 67.408248,96.58168 63.8411549,106.772351 L63.8411549,106.772351 Z" fill="#FFFFFF"></path>
    </g>
</svg>

<svg preserveAspectRatio="xMidYMid" viewBox="0 0 256 256" xmlns="http://www.w3.org/2000/svg">
  <defs>
    <linearGradient id="aws-sqs_svg__a" x1="0%" x2="100%" y1="100%" y2="0%">
      <stop offset="0%" stop-color="#B0084D"/>
      <stop offset="100%" stop-color="#FF4F8B"/>
    </linearGradient>
  </defs>
  <path fill="url(#aws-sqs_svg__a)" d="M0 0h256v256H0z"/>
  <path fill="#FFF" d="m91.894 139.8 9.607-9.49a3.175 3.175 0 0 0 .944-2.246 3.17 3.17 0 0 0-.932-2.253l-9.606-9.599-4.54 4.486 4.12 4.12H76.83v6.364h14.71l-4.16 4.107 4.515 4.512Zm73.315.29 12.808-9.551a3.186 3.186 0 0 0 1.278-2.542 3.188 3.188 0 0 0-1.281-2.549l-12.808-9.538-3.843 5.09 5.123 3.818h-12.808v6.364h12.805L161.36 135l3.849 5.09ZM112.666 128c0 6.755-1.169 13.124-3.352 18.666 5.76-2.214 12.257-3.321 18.748-3.321 6.49 0 12.987 1.107 18.744 3.321-2.18-5.542-3.349-11.911-3.349-18.666 0-6.755 1.169-13.12 3.35-18.666-11.518 4.425-25.972 4.425-37.493 0 2.183 5.545 3.352 11.911 3.352 18.666ZM96.98 158.884a3.163 3.163 0 0 1 0-4.499c5.812-5.775 9.283-15.64 9.283-26.385 0-10.744-3.471-20.61-9.283-26.385a3.163 3.163 0 0 1 0-4.499 3.213 3.213 0 0 1 4.528 0c12.408 12.329 40.701 12.329 53.11 0a3.213 3.213 0 0 1 4.527 0 3.163 3.163 0 0 1 0 4.499c-5.812 5.775-9.283 15.64-9.283 26.385 0 10.744 3.471 20.61 9.283 26.385a3.163 3.163 0 0 1 0 4.499 3.204 3.204 0 0 1-2.264.932c-.82 0-1.64-.312-2.264-.932-12.408-12.329-40.701-12.329-53.109 0a3.213 3.213 0 0 1-4.528 0Zm114.224-30.868c0-2.965-1.162-5.752-3.272-7.85a11.163 11.163 0 0 0-7.9-3.244c-2.86 0-5.722 1.078-7.9 3.245-4.357 4.327-4.357 11.368 0 15.698 4.355 4.327 11.438 4.33 15.8 0a10.992 10.992 0 0 0 3.272-7.85Zm1.255 12.348c-3.426 3.404-7.925 5.106-12.427 5.106s-9-1.702-12.427-5.106c-6.856-6.809-6.856-17.887 0-24.696 6.856-6.815 18.005-6.809 24.854 0 6.856 6.809 6.856 17.887 0 24.696ZM67.136 128.089c0-2.965-1.162-5.752-3.272-7.849a11.134 11.134 0 0 0-7.9-3.252 11.145 11.145 0 0 0-7.9 3.252 10.989 10.989 0 0 0-3.269 7.85 11 11 0 0 0 3.27 7.848c4.223 4.19 11.578 4.19 15.799 0a11.002 11.002 0 0 0 3.272-7.849Zm1.255 12.348c-3.426 3.404-7.925 5.106-12.427 5.106-4.499 0-8.998-1.702-12.427-5.106-6.85-6.809-6.85-17.887 0-24.696 6.856-6.808 18.002-6.808 24.854 0 6.853 6.809 6.853 17.887 0 24.696Zm107.276 35.102c-12.783 12.705-29.783 19.698-47.862 19.698-18.085 0-35.081-6.993-47.864-19.698-8.767-8.708-13.593-19.115-16.097-26.308l-6.052 2.08c2.725 7.827 7.993 19.163 17.621 28.727 13.993 13.907 32.597 21.562 52.392 21.562 19.792 0 38.396-7.655 52.39-21.562 8.085-8.027 14.524-18.233 18.139-28.736l-6.058-2.062c-3.305 9.602-9.203 18.944-16.61 26.3ZM63.84 106.772l-6.045-2.087c3.874-11.084 10.137-21.291 17.637-28.74C89.419 62.053 108.017 54.4 127.805 54.4c19.79 0 38.387 7.652 52.37 21.546 7.893 7.842 14.512 18.316 18.153 28.74l-6.046 2.086c-3.34-9.544-9.401-19.14-16.635-26.327-12.773-12.695-29.766-19.682-47.842-19.682-18.078 0-35.068 6.987-47.845 19.682-6.826 6.786-12.552 16.137-16.119 26.327Z"/>
</svg>
